site/static/img/icon-standard-sql.svg

<svg width="38" height="38" viewBox="0 0 38 38" fill="none" xmlns="http://www.w3.org/2000/svg">
<mask id="path-1-inside-1" fill="white">
<rect x="20.8789" width="16.8784" height="16.8784" rx="1"></rect>
</mask>
<rect x="20.8789" width="16.8784" height="16.8784" rx="1" stroke="url(#tile3_paint0)" stroke-width="4" stroke-linejoin="round" stroke-dasharray="2 2" mask="url(#path-1-inside-1)"></rect>
<g style="mix-blend-mode:multiply">
<path fill-rule="evenodd" clip-rule="evenodd" d="M0 2C0 0.895431 0.89543 0 2 0H14.8784C15.983 0 16.8784 0.89543 16.8784 2V14.8784C16.8784 15.983 15.983 16.8784 14.8784 16.8784H2C0.895431 16.8784 0 15.983 0 14.8784V2ZM0 22.8784C0 21.7738 0.89543 20.8784 2 20.8784H14.8784C15.983 20.8784 16.8784 21.7738 16.8784 22.8784V35.7568C16.8784 36.8614 15.983 37.7568 14.8784 37.7568H2C0.895431 37.7568 0 36.8614 0 35.7568V22.8784ZM37.7568 22.8784C37.7568 21.7738 36.8614 20.8784 35.7568 20.8784H22.8784C21.7738 20.8784 20.8784 21.7738 20.8784 22.8784V35.7568C20.8784 36.8614 21.7738 37.7568 22.8784 37.7568H35.7568C36.8614 37.7568 37.7568 36.8614 37.7568 35.7568V22.8784Z" fill="url(#tile3_paint1)"></path>
</g>
<defs>
<linearGradient id="tile3_paint0" x1="51.5288" y1="62.1433" x2="9.53359" y2="56.6695" gradientUnits="userSpaceOnUse">
<stop offset="0.0260417" stop-color="#4512C7"></stop>
<stop offset="0.53125" stop-color="#59C3FF"></stop>
<stop offset="1" stop-color="#75FF86"></stop>
</linearGradient>
<linearGradient id="tile3_paint1" x1="28.8197" y1="37.8549" x2="3.98006" y2="9.13879" gradientUnits="userSpaceOnUse">
<stop stop-color="#5A34CB"></stop>
<stop offset="1" stop-color="#B634CB"></stop>
</linearGradient>
</defs>
</svg>

<svg width="38" height="38" fill="none" xmlns="http://www.w3.org/2000/svg"><mask id="b" fill="#fff"><rect x="20.879" width="16.878" height="16.878" rx="1"/></mask><rect x="20.879" width="16.878" height="16.878" rx="1" stroke="url(#a)" stroke-width="4" stroke-linejoin="round" stroke-dasharray="2 2" mask="url(#b)"/><path fill-rule="evenodd" clip-rule="evenodd" d="M0 2a2 2 0 0 1 2-2h12.878a2 2 0 0 1 2 2v12.878a2 2 0 0 1-2 2H2a2 2 0 0 1-2-2V2Zm0 20.878a2 2 0 0 1 2-2h12.878a2 2 0 0 1 2 2v12.879a2 2 0 0 1-2 2H2a2 2 0 0 1-2-2V22.878Zm37.757 0a2 2 0 0 0-2-2H22.878a2 2 0 0 0-2 2v12.879a2 2 0 0 0 2 2h12.879a2 2 0 0 0 2-2V22.878Z" fill="url(#c)" style="mix-blend-mode:multiply"/><defs><linearGradient id="a" x1="51.529" y1="62.143" x2="9.534" y2="56.669" gradientUnits="userSpaceOnUse"><stop offset=".026" stop-color="#4512C7"/><stop offset=".531" stop-color="#59C3FF"/><stop offset="1" stop-color="#75FF86"/></linearGradient><linearGradient id="c" x1="28.82" y1="37.855" x2="3.98" y2="9.139" gradientUnits="userSpaceOnUse"><stop stop-color="#5A34CB"/><stop offset="1" stop-color="#B634CB"/></linearGradient></defs></svg>
